X:1
T:See amid the winter's snow
T:Edward Cassell 1858
T:HUMILITY (Goss)
T:S3
T:Public Domain.
Z:Public Domain.
%%score 1 ( 2 3 ) ( 4 5 ) { ( 6 7 10 ) | ( 8 9 ) }
L:1/8
Q:1/4=110
M:4/4
K:G
V:1 treble nm="Voice" snm="Vo."
V:2 treble nm="Voice"
V:3 treble 
V:4 bass nm="Pad Synthesizer, Staff 1"
V:5 bass 
V:6 treble nm="Piano"
V:7 treble 
V:10 treble 
V:8 bass 
V:9 bass 
V:1
"^UNISON" G,3 A, G,2 F,2 | E,3 D, D,4 | G,2 A,2 C2 B,2 | B,3 A, A,4 | G,3 A, G,2 F,2 | E,3 D, D,4 | %6
 G,2 A,2 B,2 C2 | A,3 G, G,4 | z8 | z8 | z8 | z8 | z8 | z8 | z8 | z8 |] %16
V:2
"^UNISON""^UNISON""^UNISON" G3 A G2 F2 | E3 D D4 | G2 A2 c2 B2 | B3 A A4 | G3 A G2 F2 | E3 D D4 | %6
w: 1.See a- mid the|win- ter's snow,|born for us on|earth be- low,|see, the gen- tle|Lamb ap- pears,|
w: 2.Lo, with- in a|man- ger lies,|he who built the|star- ry skies,|he who throned in|height sub- lime,|
w: 3.Say, ye ho- ly|shep- herds say,|tell your joy- ful|news to- day,|where- fore have ye|left your sheep,|
w: 4."As we watched at|dead of night,|Lo, we saw a|won- drous light;|An- gels sing- ing|"Peace on earth"|
w: 5.Sa- cred In- fant,|all di- vine,|what a ten- der|love was Thine,|thus to come from|high- est bliss|
 G2 A2 B2 c2 | A3 G G4 |"^HARMONY" [Gd]3 [Gd] [Gc]2 [GB]2 | [DA]2 [DG]2 [DF]4 | %10
w: prom- ised from e-|ter- nal years.|Hail that e- ver|bless- ed morn,|
w: sits a- mid the|che- ru- bim.|||
w: on the lon- ley|moun- tain steep?|||
w: told us of the|Sa- viour's birth.|||
w: down to such a|world as this.|||
 [Dd]3 [Gd] [Gc]2 [GB]2 | [EA]2 [DG]2 [DF]4 | [B,G]3 [B,A] [^CG]2 [DF]2 | E3 D D4 | %14
w: hail re- demp- tion's|hap- py dawn,|sing through all Je-|ru- sa- lem;|
w: ||||
w: ||||
w: ||||
w: ||||
 [Dd]3 [DB] [EG]2 [Gc]2 | [FB]2 [FA]2 G4 |] %16
w: Christ is born in|Beth- le hem!|
w: ||
w: ||
w: ||
w: ||
V:3
 x8 | x8 | x8 | x8 | x8 | x8 | x8 | x8 | x8 | x8 | x8 | x8 | x8 | D2 ^C2 x4 | x8 | x8 |] %16
V:4
 z8 | z8 | z8 | z8 | z8 | z8 | z8 | z8 | B,3 B, E2 D2 | C2 B,2 A,4 | G,3 G, E2 D2 | C2 B,2 A,4 | %12
 G,3 G, E,2 D,2 | B,2 A,G, F,4 | G,3 G, G,2 E2 | D2 C2 B,4 |] %16
V:5
 x8 | x8 | x8 | x8 | x8 | x8 | x8 | x8 | G,3 G, G,2 G,2 | F,2 G,2 D,4 | B,,3 B,, C,2 G,,2 | %11
 A,,2 B,,C, D,4 | E,3 E, A,,2 B,,2 | G,,2 A,,2 D,2 C,2 | B,,3 B,, C,2 A,,2 | D,2 D,2 G,,4 |] %16
V:6
 G3 A G2 F2 | E3 D D4 | G2 A2 c2 B2 | B3 A [FA]4 | G3 A G2 F2 | E3 D D4 | G2 A2 B2 c2 | %7
 A3 G [B,G]4 | z8 | z8 | z8 | z8 | z8 | z8 | z8 | z8 |] %16
V:7
 B,4 C2 D2 | B,2 C2 B,2 C2 | D4 G4 | G4 x4 | x8 | G,2 A,2 B,2 A,2 | B,2 C2 D2 E2 | x8 | x8 | x8 | %10
 x8 | x8 | x8 | x8 | x8 | x8 |] %16
V:8
 G,6 D,2 | E,2 F,2 G,2 A,2 | B,2 D2 E2 D2 | D2 ^C2 D4 | G,6 D,2 | E,2 F,2 G,2 A,2 | G,8- | %7
 G,2 F,2 G,4 | z8 | z8 | z8 | z8 | z8 | z8 | z8 | z8 |] %16
V:9
 G,,4 A,,2 B,,2 | C,4 G,,4 | G,2 F,2 E,2 G,2 | D,6 C,2 | B,,2 G,,2 A,,2 B,,2 | C,6 F,2 | %6
 E,4 D,2 C,2 | D,4 G,,4 | x8 | x8 | x8 | x8 | x8 | x8 | x8 | x8 |] %16
V:10
 x8 | x8 | x8 | x8 | D2 B,2 C2 D2 | x8 | x8 | x8 | x8 | x8 | x8 | x8 | x8 | x8 | x8 | x8 |] %16

